!!!COM: Corelli, Arcangelo
!!!OTL: 
!!!ONM: Opus 3, No. 6
!!!OMV: 4
!!!CDT: 1653/2/17/-1713/1/8/
!!!OCY: Italia
**kern	**kern	**kern	**kern
*clefC	*clefC	*clefG	*clefG
*k[]	*k[]	*k[]	*k[]
*C:	*C:	*C:	*C:
*M6/8	*M6/8	*M6/8	*M6/8
=1	=1	=1	=1
2.r	2.r	2.r	4gg
.	.	.	8dd
.	.	.	8ee
.	.	.	8b
.	.	.	8cc
=2	=2	=2	=2
2.r	2.r	2.r	8dd
.	.	.	8g
.	.	.	8cc
.	.	.	8b
.	.	.	4a
=3	=3	=3	=3
2.r	2.r	2.r	8g
.	.	.	8bb
.	.	.	8gg
.	.	.	8aa
.	.	.	8ff#
.	.	.	8dd
=4	=4	=4	=4
2.r	2.r	4.r	8gg
.	.	.	8ee
.	.	.	8cc#
.	.	4dd	4ff#
.	.	8a	8cc#
=5	=5	=5	=5
2.r	2.r	8b	8dd
.	.	8f#	8a
.	.	8g	8b
.	.	8a	8cc#
.	.	8d	8f#
.	.	8g	8b
=6	=6	=6	=6
2.r	2.r	8f#	8a
.	.	4e	4g
.	.	8d	4f#
.	.	8dd	.
.	.	8b	8r
=7	=7	=7	=7
2.r	2.r	8ee	2r
.	.	8cc	.
.	.	8a	.
.	.	8dd	.
.	.	8b	8dd
.	.	8g	8b
=8	=8	=8	=8
4.r	4.r	8cc	8ee
.	.	8a	8cc
.	.	8f#	8a
4G	4G	4b	8dd
.	.	.	8bb
8D	8D	8dd	8ff#
=9	=9	=9	=9
8E	8E	8b	8gg
8BB	8BB	8g	8dd
8C	8C	8cc	8ee
8D	8D	8cc	8ff#
8GG	8GG	8b	[4gg
8C	8C	8ee	.
=10	=10	=10	=10
8BB	8BB	8dd	8gg]
4AA	4AA	4cc	4ff#
8GG	8GG	8b	4gg
8B	8B	[4gg	.
8G	8G	.	8bb
=11	=11	=11	=11
8d	8d	8gg]	4.aa
8F#	8F#	4.ff#	.
8D	8D	.	.
8E	8E	.	4.gg
8C#	8C#	[4ee	.
8AA	8AA	.	.
=12	=12	=12	=12
8D	8D	8ee]	8ff#
8F#	8F#	8dd	4.aa
8D	8D	8a	.
8G	8G	8b	.
8B	8B	8gg	[4gg
8G	8G	8b	.
=13	=13	=13	=13
8A	8A	8cc#	8gg]
8d	8d	4.dd	8ff#
8F#	8F#	.	8aa
8G	8G	.	8bb
8A	8A	4cc#	4ee
8AA	8AA	.	.
=14	=14	=14	=14
4D	4D	4ff#	4dd
2r	2r	8cc#	8a
.	.	8dd	8b
.	.	8a	8f#
.	.	8b	8g
=15	=15	=15	=15
2.r	2.r	8cc#	8a
.	.	8f#	8d
.	.	8b	8g
.	.	8a	8f#
.	.	4g	4e
=16	=16	=16	=16
8r	8r	4.f#	8d
4.d	4.d	.	8dd
.	.	.	8d
.	.	4.r	8e
[4c	[4c	.	8cc
.	.	.	8e
=17	=17	=17	=17
8c]	8c]	8r	8f#
8B	8B	8dd	4.g
8G	8G	8b	.
8A	8A	8cc	.
8d	8d	8a	4f#
8D	8D	8f#	.
=18	=18	=18	=18
4G	4G	8b	8r
.	.	4.ee	8bb
8G	8G	.	8gg
8F#	8F#	.	8aa
8B	8B	[4dd	8ff#
8BB	8BB	.	8dd
=19	=19	=19	=19
8E	8E	8dd]	8gg
8A	8A	4cc#	8ee
8AA	8AA	.	8cc#
4.D	4.D	8r	8ff#
.	.	8dd	[4bb
.	.	8b	.
=20	=20	=20	=20
4.C	4.C	8ee	8bb]
.	.	8cc	4.aa
.	.	8a	.
4.BB	4.BB	8dd	.
.	.	8b	[4gg
.	.	8g	.
=21	=21	=21	=21
4.AA	4.AA	8cc	8gg]
.	.	8a	8ff#
.	.	8g	8ee
4BB	4BB	4f#	8dd#
.	.	.	8bb
8GG	8GG	8b	8b
=22	=22	=22	=22
4AA	4AA	8b	8cc
.	.	8e	8a
8AA	8AA	8a	8cc
4BB	4BB	4a	4d#
[8AA	[8AA	[8g	[8e
=23	=23	=23	=23
8AA]	8AA]	8g]	8e]
4BB	4BB	4f#	4d#
4.EE	4.EE	4gg	4ee
.	.	8dd	8b
=24	=24	=24	=24
4.r	4.r	8ee	8cc
.	.	8b	8g
.	.	8cc	8a
4G	4G	4dd	4b
8D	8D	8r	8r
=25	=25	=25	=25
8E	8E	4.r	4.r
8D	8D	.	.
8C	8C	.	.
4.BB	4.BB	4ddd	4bb
.	.	8aa	8ff#
=26	=26	=26	=26
4.r	4.r	8bb	8gg
.	.	8ff#	8dd
.	.	8gg	8ee
4d	4d	4aa	4ff#
8A	8A	8r	8r
=27	=27	=27	=27
8B	8B	4.r	4.r
8A	8A	.	.
8G	8G	.	.
4.F#	4.F#	4aa	4ff#
.	.	8ff#	8dd
=28	=28	=28	=28
4.G	4.G	8dd	8b
.	.	8gg	8ee
.	.	8ff#	8dd
4.A	4.A	8ee	8cc#
.	.	[4aa	8ff#
.	.	.	8ee
=29	=29	=29	=29
4.B	4.B	8aa]	8dd
.	.	8gg	4.bb
.	.	8bb	.
4.c#	4.c#	[4.ee	.
.	.	.	8aa
.	.	.	8gg
=30	=30	=30	=30
4d	4d	8ee]	8ff#
.	.	8dd	8gg
8F#	8F#	8cc	4aa
4G	4G	8b	.
.	.	8cc#	[4gg
8G	8G	8dd	.
=31	=31	=31	=31
8A	8A	8cc#	8gg]
8B	8B	4.dd	8ff#
8G	8G	.	8ee
8A	8A	.	8ff#
4AA	4AA	4cc#	4ee
=32	=32	=32	=32
8D	8D	4.dd	8dd
8E	8E	.	8gg
8BB	8BB	.	8dd
8C	8C	4.r	8ee
8GG	8GG	.	8b
8AA	8AA	.	8cc
=33	=33	=33	=33
4BB	4BB	8r	8dd
.	.	8gg	8bb
2r	2r	8dd	8ff#
.	.	8ee	8gg
.	.	8b	8dd
.	.	8cc	8ee
=34	=34	=34	=34
8r	8r	8dd	8ff#
8B	8B	8bb	4.ddd
8BB	8BB	8ff#	.
8E	8E	8gg	.
8A	8A	8ee	[4ccc
8AA	8AA	8aa	.
=35	=35	=35	=35
8D	8D	8ff#	8ccc]
8G	8G	8dd	4.bb
8GG	8GG	8gg	.
8C	8C	8ee	.
[4c	[4c	8cc	8aa
.	.	8ee	8gg
=36	=36	=36	=36
8c]	8c]	4dd	8ff#
8B	8B	.	8dd
8G	8G	8ddd	8bb
8c	8c	4ccc	8ee
8d	8d	.	8ff#
8e	8e	[8bb	[8gg
=37	=37	=37	=37
8c	8c	8bb]	8gg]
8d	8d	4aa	4ff#
8D	8D	.	.
4G	4G	4gg	8gg
.	.	.	[4dd
8BB	8BB	8dd	.
=38	=38	=38	=38
4C	4C	4ee	8dd]
.	.	.	8g
8C	8C	8e	4cc
8D	8D	8f#	.
8E	8E	[4g	8b
8C	8C	.	8a
=39	=39	=39	=39
8D	8D	8g]	8b
4DD	4DD	4f#	4a
4GG	4GG	4g	8g
.	.	.	[4dd
8BB	8BB	8dd	.
=40	=40	=40	=40
4C	4C	4ee	8dd]
.	.	.	8g
8C	8C	8e	4cc
8D	8D	8f#	.
8E	8E	[4g	8b
8C	8C	.	8a
=41	=41	=41	=41
8D	8D	8g]	8b
4DD	4DD	4f#	4a
4GG	4GG	4g	4g
8r	8r	8r	8r
==	==	==	==
*-	*-	*-	*-
!!!RWG: This file only contains pitch and duration data.
!!!RWG: Transposing instruments are not transposed.
!!!RWG: Durations of rests and tied notes may be interpreted.
!!!RWG: Key is interpreted using the Humdrum key tool.
!!!SCA: 
!!!YOR: Chrysander Edition
!!!AGN: chamber
!!!AFT: stage1
!!!ENC: F. Bennion
!!!END: 1997/04/15
!!!AST: baroque
!!!YEC: Copyright 1994, Center for Computer Assisted Research in the Humanities
!!!YEM: Rights to all derivative electronic formats reserved.
!!!YEM: Refer to licensing agreement for further details.
!!!YEN: United States of America
!!!EED: W.B. Hewlett
!!!KEY: 3444894502
!!!EMD: Converted from MuseData to Humdrum Aug 9, 1999, by Bret Aarden using muse2kern.
!!!VTS: 2354120979
